frontend/public/svg/e-commerce/card-3.svg

<svg width="156" height="126" viewBox="0 0 156 126" fill="none" xmlns="http://www.w3.org/2000/svg">
<path d="M150.121 46.6211L149.636 46.3919C148.22 45.6879 146.751 45.0927 145.245 44.6114C141.482 43.5323 137.632 42.5073 133.908 41.5162C132.498 41.1456 131.088 40.7699 129.679 40.3897C128.826 40.1607 127.973 39.9375 127.022 39.6815L125.026 39.1565L125.032 34.1731C125.032 32.4128 125.046 30.6458 125.053 28.8855C125.08 24.9869 125.107 20.9608 125.032 17.0057C124.911 10.8217 121.303 5.95906 115.369 4.01039L115.04 3.89598C114.139 3.56015 113.206 3.31848 112.255 3.17427L109.24 2.83008C104.108 2.23937 98.8045 1.62992 93.5735 1.23217C90.9482 1.03002 88.2454 1.03522 85.6286 1.04309C84.3605 1.04966 83.0997 1.05671 81.8316 1.03636C79.1 1.00223 76.3689 0.941971 73.6307 0.880932C68.997 0.787075 64.245 0.683838 59.5082 0.683838C58.0918 0.683838 56.6776 0.692819 55.2656 0.710758C50.599 0.785581 45.8439 1.07523 41.2515 1.35876C38.3714 1.534 35.3904 1.72303 32.4566 1.85102C25.6688 2.17053 18.9274 3.14175 12.3255 4.75134C8.97861 5.62705 6.01958 7.59443 3.91709 10.3417C1.81461 13.0891 0.688836 16.4592 0.718085 19.9186C0.873637 27.8701 0.873677 35.9568 0.873677 43.7797C0.873677 46.9433 0.877905 50.1064 0.886656 53.269C0.89322 55.1101 0.866447 56.9518 0.846757 58.7928C0.799501 62.6101 0.752129 66.5554 0.974627 70.41C1.49379 79.4472 3.46292 83.8105 13.7615 85.7532C14.5491 85.9016 15.3669 86.0092 16.1624 86.1103C16.6822 86.1759 17.208 86.2455 17.7271 86.3262C18.881 86.5015 20.0243 86.6905 21.2615 86.8861L23.4463 87.2438L23.487 87.7761C23.5139 88.1003 23.5475 88.3832 23.5744 88.6326C23.6484 89.0756 23.6667 89.5272 23.6289 89.9748C23.0552 94.3519 24.9165 97.421 29.3271 99.3604C30.6962 99.9603 32.0522 100.588 33.4141 101.215C37.1767 103.067 41.0722 104.637 45.0681 105.909C57.8352 109.591 70.9397 112.916 83.6123 116.133L85.6758 116.658C96.9254 119.511 108.182 122.148 117.698 124.347C122.985 125.574 126.674 125.041 129.669 122.634C131.894 120.876 133.834 118.785 135.422 116.436C137.04 113.81 138.348 111.007 139.32 108.079C141.7 101.429 144.041 94.6381 146.307 88.0688C147.62 84.2522 148.942 80.4356 150.273 76.6177C152.916 69.0232 154.467 62.65 155.135 56.5533C155.643 51.9557 153.817 48.3335 150.121 46.6211ZM11.203 15.0047C12.3844 13.7767 14.339 13.224 15.3977 13.0081C21.3634 11.8788 27.3931 11.1175 33.4523 10.7286C51.6886 9.28463 69.696 9.39306 89.6526 9.65625C97.0574 9.75733 104.301 9.9732 111.509 11.5445C115.649 12.4482 117.248 14.2964 117.396 18.3703C117.457 19.8799 117.443 21.4189 117.43 23.0375C117.423 23.8198 117.416 24.6357 117.416 25.4987V26.1868L116.735 26.1736C111.117 26.1059 105.536 26.0248 99.9892 25.9307C87.1414 25.7214 75.0156 25.5461 62.5989 25.5369C50.1692 25.55 37.4901 25.7732 25.2356 25.9884C19.7394 26.0904 14.2272 26.1826 8.69907 26.2653L8.19304 26.272L8.0447 25.7862C6.87968 21.9644 7.91147 18.4301 11.203 15.0047ZM7.95222 33.3552H8.62701C12.9702 33.3285 17.2887 33.2947 21.5825 33.254C31.2136 33.1732 41.1675 33.0928 50.9207 33.1328C59.3441 33.1801 67.9028 33.3754 76.178 33.5645C79.6565 33.6386 83.1312 33.7193 86.6045 33.7869L100.525 34.0705C104.638 34.1581 108.747 34.2435 112.853 34.3266C113.589 34.3404 114.316 34.3402 115.139 34.333L117.108 34.3266V39.675H116.434C108.591 39.6882 100.749 39.6836 92.9106 39.6613C65.3332 39.614 36.8252 39.5601 8.66113 40.8682L7.95288 40.9025L7.95222 33.3552ZM27.3418 79.7156C25.5211 79.6073 23.6932 79.4931 21.8659 79.3874C19.5221 79.2056 17.1912 78.886 14.8851 78.4298L13.1589 78.1266C10.6766 77.7085 9.19992 76.13 9.00433 73.6957C8.94395 72.9402 8.86906 72.1861 8.80212 71.4293C8.63344 69.6421 8.45826 67.7945 8.42413 65.96C8.36375 62.1624 8.37687 58.4193 8.39066 54.4609C8.39722 52.8288 8.39939 51.1722 8.39722 49.4906V48.8695L9.0109 48.8157C9.42898 48.7757 9.82666 48.7352 10.2047 48.6847C10.9669 48.5854 11.7336 48.5246 12.5019 48.5023C14.4171 48.4819 16.333 48.4891 18.241 48.4891C20.3728 48.4891 22.4967 48.4891 24.6212 48.4622C28.216 48.415 31.8041 48.3472 35.3989 48.2796C42.0082 48.1483 48.8539 48.0172 55.584 48.0369C68.9379 48.0776 82.5142 48.2257 95.6449 48.361C101.364 48.4213 107.081 48.4798 112.796 48.5363C113.538 48.5428 114.28 48.543 115.089 48.543L116.876 48.5363C116.876 48.5363 117.099 51.6179 117.105 51.9756C117.236 58.7398 117.605 65.586 116.134 73.2132C115.177 78.1771 114.057 79.2627 109.073 80.0116C108.708 80.0575 108.341 80.0825 107.974 80.0858C102.41 80.1461 96.8434 80.2164 91.275 80.2945C78.2992 80.4704 64.8981 80.6522 51.6729 80.6522H49.7571C42.2807 80.6397 34.6862 80.1744 27.3418 79.7156ZM136.222 85.5019C136.188 85.7585 136.174 86.0013 136.156 86.2304C136.144 86.7391 136.069 87.2444 135.934 87.7347C133.735 94.6538 131.57 101.432 129.317 108.237C128.819 109.658 128.178 111.026 127.402 112.317C126.012 114.725 124.9 115.696 122.944 115.696C122.048 115.666 121.159 115.534 120.294 115.302C116.726 114.433 113.158 113.542 109.59 112.659C107.391 112.106 105.19 111.558 102.987 111.018C98.3536 109.871 93.7232 108.734 89.0947 107.605C78.4456 104.994 67.4355 102.297 56.6275 99.5383C49.4045 97.6973 41.9657 95.7972 35.1811 92.253C33.1911 91.214 33.0566 90.9646 33.0966 88.4285L33.1104 87.8214L33.7174 87.7675C37.6394 87.4623 41.5815 87.5214 45.4928 87.9428C45.8209 87.9697 46.1491 88.0242 46.4707 88.078C46.9004 88.1587 47.3353 88.2086 47.7722 88.2263C51.1444 88.3005 54.5189 88.3812 57.8956 88.4692C66.2653 88.6851 74.9184 88.9004 83.416 88.84C92.2845 88.7744 101.416 88.2939 110.548 87.4302C115.808 86.9314 119.626 84.6519 121.885 80.666L122.155 80.1868L136.281 84.9571L136.222 85.5019ZM142.076 69.9631L139.364 78.0833L124.864 74.0973L124.011 73.7534C124.539 71.5711 124.419 69.7609 124.763 67.7512C124.972 66.5442 125.168 62.9968 125.168 62.9968L142.224 69.3225L142.076 69.9631ZM144.652 61.4307L143.957 61.2823C137.968 60.0083 132.066 58.3526 126.287 56.3252L125.842 56.17V46.8765L145.913 53.6004L144.652 61.4307Z" fill="black"/>
<path d="M99.9374 54.869C98.3524 54.4096 96.936 54.8357 95.4258 55.2879C94.9801 55.4192 94.5285 55.5576 94.0763 55.6718C93.8676 55.7256 93.6517 55.78 93.4357 55.8403C92.2418 56.1646 90.8931 56.5349 89.8141 56.0833C88.4436 55.503 86.9701 55.207 85.4822 55.2135C83.3176 55.2893 81.1799 55.7223 79.1564 56.4948C77.6219 57.0286 76.2515 57.949 75.1764 59.1669C74.1013 60.3849 73.3584 61.8594 73.019 63.4482C72.6508 64.9634 72.679 66.548 73.1004 68.0491C73.5224 69.5508 74.3232 70.9179 75.4265 72.0199C79.0823 75.6016 83.5467 76.357 88.6924 74.2725C90.2696 73.5958 92.0495 73.5643 93.6497 74.1852C95.1265 74.684 97.3121 75.318 99.1938 75.0817C103.919 74.4956 107.381 70.28 107.422 65.0598V64.9794C107.451 62.7079 106.734 60.4893 105.382 58.6634C104.031 56.8376 102.118 55.5048 99.9374 54.869ZM85.6122 66.6379C85.3897 66.8388 85.1285 66.9924 84.8443 67.0889C84.5601 67.1853 84.2588 67.2221 83.9602 67.1978C83.5821 67.1775 83.2061 67.1309 82.8346 67.0574C82.2458 66.9543 81.7122 66.6465 81.3283 66.1884C80.9443 65.7307 80.7336 65.1516 80.7343 64.5538C80.7349 64.1802 80.8176 63.8114 80.9771 63.4735C81.136 63.1355 81.3683 62.8368 81.6558 62.5986C81.9439 62.3605 82.2806 62.1889 82.6429 62.0958C83.0046 62.0026 83.3826 61.9903 83.7495 62.0599L84.0481 62.174C84.6277 62.3908 85.1318 62.7722 85.4986 63.2709C85.8655 63.7698 86.0788 64.3645 86.113 64.9826C86.1497 65.2783 86.1241 65.5782 86.0375 65.8633C85.9509 66.1483 85.8058 66.4122 85.6115 66.6379H85.6122ZM99.0875 65.3364C98.4836 66.0264 97.654 66.4785 96.747 66.611C96.3545 66.6222 95.9666 66.5185 95.6312 66.3144C95.3483 66.1024 95.1173 65.8289 94.9565 65.5146C94.795 65.2002 94.7077 64.8536 94.7005 64.5003C94.6467 64.1743 94.6664 63.8403 94.7569 63.5225C94.8475 63.2048 95.0077 62.9109 95.2256 62.6624C95.4507 62.4364 95.7244 62.2644 96.0256 62.1592C96.3276 62.0541 96.6485 62.0187 96.9655 62.0554C97.3593 62.0394 97.7505 62.1261 98.101 62.3073C98.4508 62.4885 98.7475 62.7578 98.9621 63.0886C99.1767 63.4194 99.3008 63.8004 99.3237 64.1939C99.3461 64.5875 99.2653 64.9799 99.0901 65.3329L99.0875 65.3364Z" fill="black"/>
<path d="M58.1899 18.6872C58.264 20.225 57.1916 20.7375 55.2422 21.277L55.1011 21.317C54.7713 21.4182 54.4323 21.4862 54.089 21.5199C53.1248 21.5403 44.2762 21.8371 42.4719 21.5943C41.7834 21.4998 40.7516 21.3644 40.3538 20.9601C39.5308 20.1239 39.6319 19.1052 39.5308 18.2959C39.4094 17.2845 40.2863 16.6551 41.2039 16.4884C44.4344 15.9017 47.1385 15.3492 50.5377 15.3492C52.134 15.3418 53.7277 15.4793 55.2993 15.76C57.1108 16.0835 58.1104 17.1022 58.1899 18.6872Z" fill="black"/>
<path d="M30.6604 19.4629C30.6669 20.2991 30.4445 21.7692 28.9133 22.1603C27.4542 22.5004 25.9773 22.7596 24.4896 22.9363C23.1202 22.9892 21.7491 22.9672 20.3821 22.8706C18.507 22.6737 16.8884 22.5128 15.243 22.2699C13.4893 22.014 12.4641 21.0964 12.5048 19.8087C12.5455 18.5879 13.4966 17.7085 15.0613 17.4682C18.9724 16.8683 27.5442 16.5495 28.4145 16.8613L28.9271 17.05C29.4498 17.1909 29.9077 17.508 30.2235 17.9477C30.5394 18.3873 30.6937 18.9226 30.6604 19.4629Z" fill="black"/>
</svg>

<svg xmlns="http://www.w3.org/2000/svg" width="156" height="126" fill="none" viewBox="0 0 156 126"><path fill="#000" d="m150.121 46.621-.485-.23a31 31 0 0 0-4.391-1.78c-3.763-1.079-7.613-2.104-11.337-3.095q-2.115-.555-4.229-1.126c-.853-.23-1.706-.453-2.657-.709l-1.996-.524.006-4.984c0-1.76.014-3.527.021-5.288.027-3.898.054-7.924-.021-11.88-.121-6.183-3.729-11.046-9.663-12.995l-.329-.114a14 14 0 0 0-2.785-.722l-3.015-.344c-5.132-.59-10.435-1.2-15.666-1.598-2.626-.202-5.329-.197-7.945-.189-1.269.007-2.53.014-3.797-.007A838 838 0 0 1 73.63.881C68.997.787 64.245.684 59.508.684q-2.124 0-4.242.027c-4.667.075-9.422.364-14.014.648-2.88.175-5.862.364-8.795.492-6.788.32-13.53 1.29-20.132 2.9A15.54 15.54 0 0 0 .718 19.92c.156 7.951.156 16.038.156 23.86q0 4.746.013 9.49c.006 1.841-.02 3.683-.04 5.524C.8 62.61.752 66.555.975 70.41c.519 9.037 2.488 13.4 12.787 15.343a41 41 0 0 0 2.4.357c.52.066 1.046.136 1.565.216 1.154.175 2.297.365 3.535.56l2.184.358.041.532c.027.324.06.607.087.857.074.443.093.894.055 1.342-.574 4.377 1.287 7.446 5.698 9.385 1.37.6 2.725 1.228 4.087 1.855a84 84 0 0 0 11.654 4.694c12.767 3.682 25.872 7.007 38.544 10.224l2.064.525c11.25 2.853 22.506 5.49 32.022 7.689 5.287 1.227 8.976.694 11.971-1.713a27.6 27.6 0 0 0 5.753-6.198 40 40 0 0 0 3.898-8.357c2.38-6.65 4.721-13.44 6.987-20.01q1.97-5.725 3.966-11.451c2.643-7.595 4.194-13.968 4.862-20.065.508-4.597-1.318-8.22-5.014-9.932M11.203 15.005c1.181-1.228 3.136-1.781 4.195-1.997a148 148 0 0 1 18.054-2.28c18.237-1.443 36.244-1.335 56.2-1.072 7.405.101 14.649.317 21.857 1.888 4.14.904 5.739 2.752 5.887 6.826.061 1.51.047 3.049.034 4.668-.007.782-.014 1.598-.014 2.46v.689l-.681-.013a3408 3408 0 0 1-16.746-.243c-12.848-.21-24.973-.385-37.39-.394-12.43.013-25.109.236-37.363.451q-8.245.153-16.537.277l-.506.007-.148-.486c-1.165-3.822-.134-7.356 3.158-10.781m-3.25 18.35h.674q6.515-.04 12.955-.101c9.632-.08 19.585-.161 29.339-.121 8.423.047 16.982.242 25.257.431 3.478.075 6.953.155 10.427.223l13.92.284q6.17.13 12.328.256c.736.013 1.463.013 2.286.006l1.969-.006v5.348h-.674q-11.765.02-23.523-.014c-27.578-.047-56.086-.1-84.25 1.207l-.708.035zm19.389 46.36c-1.82-.108-3.649-.222-5.476-.328a60 60 0 0 1-6.98-.957l-1.727-.303c-2.482-.418-3.96-1.997-4.155-4.431-.06-.756-.135-1.51-.202-2.267-.169-1.787-.344-3.635-.378-5.469-.06-3.798-.047-7.54-.033-11.5q.009-2.447.006-4.97v-.62l.614-.054c.418-.04.816-.08 1.194-.131q1.144-.15 2.297-.183c1.915-.02 3.831-.013 5.739-.013 2.132 0 4.256 0 6.38-.027 3.595-.047 7.183-.115 10.778-.182 6.61-.132 13.455-.263 20.185-.243 13.354.04 26.93.189 40.06.324q8.58.09 17.152.175c.742.007 1.484.007 2.293.007l1.787-.007s.223 3.082.229 3.44c.131 6.764.5 13.61-.971 21.237-.957 4.964-2.077 6.05-7.061 6.799q-.548.069-1.099.074-8.346.09-16.699.209c-12.976.175-26.377.357-39.602.357h-1.916c-7.476-.012-15.07-.478-22.415-.936m108.88 5.787c-.034.257-.048.5-.066.728a6.2 6.2 0 0 1-.222 1.505c-2.199 6.919-4.364 13.697-6.617 20.502a22 22 0 0 1-1.915 4.08c-1.39 2.408-2.502 3.379-4.458 3.379a11.8 11.8 0 0 1-2.65-.394c-3.568-.869-7.136-1.76-10.704-2.643q-3.299-.83-6.603-1.641a4182 4182 0 0 0-13.892-3.413c-10.65-2.611-21.66-5.308-32.467-8.067-7.224-1.84-14.662-3.74-21.447-7.285-1.99-1.039-2.124-1.288-2.084-3.825l.013-.607.607-.053a64 64 0 0 1 11.776.175c.328.027.656.081.978.135q.645.12 1.301.148 5.058.112 10.124.243c8.37.216 17.022.431 25.52.371 8.868-.066 18-.546 27.132-1.41 5.26-.499 9.078-2.778 11.337-6.764l.27-.48 14.126 4.771zm5.854-15.539-2.712 8.12-14.5-3.986-.853-.344c.528-2.182.408-3.992.752-6.002.209-1.207.405-4.754.405-4.754l17.056 6.326zm2.576-8.532-.695-.149a144 144 0 0 1-17.67-4.957l-.445-.155v-9.294l20.071 6.724z"/><path fill="#000" d="M99.937 54.869c-1.585-.46-3.001-.033-4.511.419-.446.131-.898.27-1.35.384-.208.054-.424.108-.64.168-1.194.325-2.543.695-3.622.243a11 11 0 0 0-4.332-.87 19.7 19.7 0 0 0-6.326 1.282 9.45 9.45 0 0 0-6.137 6.953 9.09 9.09 0 0 0 2.407 8.572c3.656 3.582 8.12 4.337 13.266 2.252a6.56 6.56 0 0 1 4.958-.087c1.476.499 3.662 1.133 5.544.897 4.725-.586 8.187-4.802 8.228-10.022v-.08a10.39 10.39 0 0 0-7.485-10.111M85.612 66.638a2.2 2.2 0 0 1-1.652.56 8 8 0 0 1-1.125-.14 2.536 2.536 0 0 1-2.1-2.504 2.54 2.54 0 0 1 3.014-2.494l.3.114a3.19 3.19 0 0 1 2.064 2.809 2.13 2.13 0 0 1-.501 1.655m13.476-1.302a3.85 3.85 0 0 1-2.341 1.275 2.04 2.04 0 0 1-1.116-.297 2.32 2.32 0 0 1-.93-1.814 2.24 2.24 0 0 1 .525-1.838 2.11 2.11 0 0 1 1.74-.607 2.27 2.27 0 0 1 2.358 2.139c.022.394-.059.786-.234 1.139zM58.19 18.687c.074 1.538-.998 2.05-2.948 2.59l-.14.04q-.497.153-1.013.203c-.964.02-9.813.317-11.617.074-.689-.094-1.72-.23-2.118-.634-.823-.836-.722-1.855-.823-2.664-.122-1.011.755-1.64 1.673-1.808 3.23-.586 5.935-1.139 9.334-1.139 1.596-.007 3.19.13 4.761.411 1.812.324 2.811 1.342 2.89 2.927m-27.529.776c.007.836-.215 2.306-1.747 2.697q-2.19.511-4.423.776-2.055.08-4.108-.065c-1.875-.197-3.494-.358-5.139-.601-1.754-.256-2.779-1.174-2.738-2.461.04-1.221.992-2.1 2.556-2.34 3.911-.6 12.483-.92 13.354-.608l.512.189a2.35 2.35 0 0 1 1.733 2.413"/></svg>
